src/assets/images/ranks/solo_diamond_3.svg

<svg height="240" viewBox="0 0 160 240" width="160" xmlns="http://www.w3.org/2000/svg"><g fill="none" fill-rule="evenodd"><g transform="translate(17 43)"><g fill="#004e9d"><path d="m34 120h58v55.440402l-29-17.680228-29 17.680228z"/><path d="m12 11.2148438c12-7.47656255 28.8333333-11.2148438 50.5-11.2148438s38.5 3.73828125 50.5 11.2148438l-10 43h-81z"/><path d="m0 40 20.9712362-20c14.3525092 4.7382813 28.1954305 4.7382813 41.5287638 0 13.6666667 4.7382813 28.4904121 4.7382813 44.471236 0l19.028764 20c-3.333333 13.8659304-5 25.0198076-5 33.4616317 0 8.4418242 1.666667 20.6212802 5 36.5383683l-63.5 42.619909-62.5-42.619909c3.33333333-16.6547536 5-28.8342097 5-36.5383683s-1.66666667-18.8580358-5-33.4616317z"/></g><path d="m6 44.0968304 18.9756453-18.0968304c12.9867463 4.2873936 25.5123962 4.2873936 37.5769498 0 12.3661675 4.2873936 25.7793078 4.2873936 40.2394209 0l17.218016 18.0968304c-3.016139 12.5464696-4.524208 22.6389608-4.524208 30.2774738s1.508069 18.0557629 4.524208 31.2517498l-57.4574369 40.373946-56.5525951-40.373946c3.01613841-13.8634573 4.5242076-24.2807072 4.5242076-31.2517498s-1.50806919-17.0635338-4.5242076-30.2774738z" fill="#000" opacity=".446382"/><path d="m113.658 37.973-47.308 46.999.005.005zm-102.317 0 46.9709681 46.6733991c.0002326-.0033373.0004647-.006673.0006963-.010007zm106.756068-3.9813793c1.046206.9158667 1.641724 1.7052512 1.786552 2.3681537.155173.7102526.155173 1.8248788 0 3.3438786-.609648-.1648833-1.287557-.1648833-2.033725 0-.746168.1648832-1.784002.5440167-3.113504 1.1374005l-2.058035 1.923241c-4.335126 4.1722934-7.568181 7.6212999-9.699165 10.3470195-2.130985 2.7257196-2.82939 4.3054023-2.095217 4.7390481.795015.5693216 1.695418 2.0643648 2.701209 4.4851293.173413.4173732.360749.8762548.562009 1.3766448l.248195.620392c.934556 2.3478255 2.138677 5.4992534 3.612363 9.4542837-.991562 1.0229701-1.721602 1.5837404-2.190122 1.6823109-.46852.0985704-1.212668-.0409183-2.232445-.4184661-.093528-3.1395504-.597787-5.3409578-1.512775-6.6042222-.914988-1.2632643-2.9591513-2.5802971-6.1324906-3.9510984l-25.7619174 24.4596639 28.4393683 29.5873c2.4455527 3.438006 4.3519547 6.283268 5.7192057 8.535787 1.367251 2.25252 2.588393 4.559824 3.663426 6.921913l-41.627-41.355-.003.01 41.255242 40.995507c-2.376568-1.068483-4.698016-2.282185-6.964343-3.641106-2.2663268-1.358922-5.1290301-3.253709-8.5881096-5.684362l-26.3977894-25.064039-.175 44.531969-3.5 2.207031-3.5-2.207031-.172-43.586969-25.4007894 24.119039c-3.2770227 2.302724-6.0187936 4.124505-8.2253127 5.465342l-.3627971.21902c-2.266327 1.358921-4.5877746 2.572623-6.9643427 3.641106l40.4922419-40.238507-.003-.01-40.864 40.598c.9406536-2.066828 1.9931721-4.091711 3.1575556-6.07465l.5058704-.847263c1.3672513-2.252519 3.2736532-5.097781 5.7192057-8.535787l28.4383683-29.5883-25.7609174-24.4586639c-3.1733393 1.3708013-5.217503 2.6878341-6.132491 3.9510984-.9149881 1.2632644-1.4192464 3.4646718-1.512775 6.6042222-1.0197767.3775478-1.7639249.5170365-2.2324446.4184661-.4685196-.0985705-1.1985602-.6593408-2.1901216-1.6823109 1.473686-3.9550303 2.6778068-7.1064582 3.6123625-9.4542837l.2481953-.620392c.20126-.50039.3885961-.9592716.5620084-1.3766448 1.0057914-2.4207645 1.9061944-3.9158077 2.701209-4.4851293.7341738-.4336458.0357684-2.0133285-2.0952162-4.7390481-2.1309845-2.7257196-5.3640397-6.1747261-9.6991655-10.3470195l-2.0580349-1.923241c-1.32950161-.5933838-2.3673364-.9725173-3.11350435-1.1374005-.74616795-.1648833-1.42407617-.1648833-2.03372464 0-.15517335-1.5189998-.15517335-2.633626 0-3.3438786s.82771903-1.5657016 2.01763705-2.5663468c1.27131033-.9642764 2.26426868-1.5235287 2.97887504-1.6777566.7146064-.154228 1.836065-.154228 3.364376 0-.165894.6059342-.165894 1.2797122 0 2.0213342.1658939.7416219.5473515 1.7731337 1.1443726 3.0945354l1.9350301 2.0454963c4.1978688 4.3087142 7.6680171 7.5220721 10.4104449 9.6400737 2.7424277 2.1180015 4.3317936 2.8121519 4.7680976 2.0824511.5728115-.7901711 2.0770189-1.6850884 4.5126224-2.684752 2.4356034-.9996636 6.2761084-2.4648708 11.521515-4.3956218 1.0292407.9855203 1.5934484 1.7111131 1.6926231 2.1767784.0991747.4656652-.041169 1.2052797-.4210312 2.2188434-3.1587953.0929588-5.3736969.594145-6.6447049 1.5035584-1.2710079.9094135-2.5961139 2.9411232-3.9753179 6.095129l18.3725577 19.1141477c.9821918-3.6884893 1.4048699-6.6610374 1.2680344-8.9176443-.2151875-3.5487402-1.2356914-9.2644935-3.0615119-17.1472601l.0007784-.0147675c.0180191-.3297732.3697059-6.1815748 3.1888959-17.4433287.4319688-1.7255762 1.3859835-4.4448028 2.8620439-8.1576799l.3642778-.9101686c.1871506-.4646233.3818185-.9435552.584004-1.4367957.2021855.4932405.3968534.9721724.584004 1.4367957l.3642778.9101686c1.4760604 3.7128771 2.4300751 6.4321037 2.8620439 8.1576799 2.9033449 11.5979257 3.1896743 17.4580962 3.1896743 17.4580962-1.8258205 7.8827666-2.8463244 13.5985199-3.0615119 17.1472601-.1446667 2.385755.3360559 5.5717445 1.442168 9.5579683-.0749532.1482781-.1475968.2972167-.2179309.4468155l19.416355-20.2012872c-1.379204-3.1540058-2.70431-5.1857155-3.9753179-6.095129-1.271008-.9094134-3.4859096-1.4105996-6.6447049-1.5035584-.3798622-1.0135637-.5202059-1.7531782-.4210312-2.2188434.0991747-.4656653.6633824-1.1912581 1.6926231-2.1767784 5.2454066 1.930751 9.0859116 3.3959582 11.521515 4.3956218 2.4356035.9996636 3.9398109 1.8945809 4.5126224 2.684752.436304.7297008 2.0256699.0355504 4.7680976-2.0824511 2.7424277-2.1180016 6.2125757-5.3313595 10.4104447-9.6400737l1.93503-2.0454963c.597021-1.3214017.978479-2.3529135 1.144373-3.0945354.165894-.741622.165894-1.4154 0-2.0213342 1.528311-.154228 2.64977-.154228 3.364376 0 .714606.1542279 1.707565.7134802 2.978875 1.6777566z" fill="#c7d9ff"/></g><g fill="#c7d9ff" transform="translate(31 3)"><path d="m83.8080495 12 15 21-15 21-15-21z"/><path d="m49.4040248 0 15 21-15 21-15-21z"/><path d="m15 12 15 21-15 21-15-21z"/></g></g></svg>

<?xml version="1.0" encoding="UTF-8"?>
<svg width="160px" height="240px" viewBox="0 0 160 240" version="1.1" xmlns="http://www.w3.org/2000/svg" xmlns:xlink="http://www.w3.org/1999/xlink">
    <title>solo_diamond_3</title>
    <g id="solo_diamond_3" stroke="none" stroke-width="1" fill="none" fill-rule="evenodd">
        <g id="Group" transform="translate(17.000000, 3.000000)">
            <g id="Group-2" transform="translate(0.000000, 40.000000)">
                <polygon id="Rectangle-Copy-71" fill="#004E9D" points="34 120 92 120 92 175.440402 63 157.760174 34 175.440402"></polygon>
                <path d="M12,11.2148438 C24,3.73828125 40.8333333,0 62.5,0 C84.1666667,0 101,3.73828125 113,11.2148438 L103,54.2148438 L22,54.2148438 L12,11.2148438 Z" id="Rectangle-Copy-74" fill="#004E9D"></path>
                <path d="M0,40 L20.9712362,20 C35.3237454,24.7382813 49.1666667,24.7382813 62.5,20 C76.1666667,24.7382813 90.9904121,24.7382813 106.971236,20 L126,40 C122.666667,53.8659304 121,65.0198076 121,73.4616317 C121,81.9034559 122.666667,94.0829119 126,110 L62.5,152.619909 L0,110 C3.33333333,93.3452464 5,81.1657903 5,73.4616317 C5,65.7574731 3.33333333,54.6035959 0,40 Z" id="Rectangle-Copy-78" fill="#004E9D"></path>
                <path d="M6,44.0968304 L24.9756453,26 C37.9623916,30.2873936 50.4880415,30.2873936 62.5525951,26 C74.9187626,30.2873936 88.3319029,30.2873936 102.792016,26 L120.010032,44.0968304 C116.993893,56.6433 115.485824,66.7357912 115.485824,74.3743042 C115.485824,82.0128172 116.993893,92.4300671 120.010032,105.626054 L62.5525951,146 L6,105.626054 C9.01613841,91.7625967 10.5242076,81.3453468 10.5242076,74.3743042 C10.5242076,67.4032616 9.01613841,57.3107704 6,44.0968304 Z" id="Rectangle-Copy-79" fill="#000000" opacity="0.446382068"></path>
                <path d="M113.658,37.973 L66.35,84.972 L66.355,84.977 L113.658,37.973 Z M11.341,37.973 L58.3119681,84.6463991 C58.3122007,84.6430618 58.3124328,84.6397261 58.3126644,84.6363921 L11.341,37.973 Z M118.097068,33.9916207 C119.143274,34.9074874 119.738792,35.6968719 119.88362,36.3597744 C120.038793,37.070027 120.038793,38.1846532 119.88362,39.703653 C119.273972,39.5387697 118.596063,39.5387697 117.849895,39.703653 C117.103727,39.8685362 116.065893,40.2476697 114.736391,40.8410535 L112.678356,42.7642945 C108.34323,46.9365879 105.110175,50.3855944 102.979191,53.111314 C100.848206,55.8370336 100.149801,57.4167163 100.883974,57.8503621 C101.678989,58.4196837 102.579392,59.9147269 103.585183,62.3354914 C103.758596,62.7528646 103.945932,63.2117462 104.147192,63.7121362 L104.395387,64.3325282 C105.329943,66.6803537 106.534064,69.8317816 108.00775,73.7868119 C107.016188,74.809782 106.286148,75.3705523 105.817628,75.4691228 C105.349108,75.5676932 104.60496,75.4282045 103.585183,75.0506567 C103.491655,71.9111063 102.987396,69.7096989 102.072408,68.4464345 C101.15742,67.1831702 99.1132567,65.8661374 95.9399174,64.4953361 L70.178,88.955 L98.6173683,118.5423 C101.062921,121.980306 102.969323,124.825568 104.336574,127.078087 C105.703825,129.330607 106.924967,131.637911 108,134 L66.373,92.645 L66.37,92.655 L107.625242,133.650507 C105.248674,132.582024 102.927226,131.368322 100.660899,130.009401 C98.3945722,128.650479 95.5318689,126.755692 92.0727894,124.325039 L65.675,99.261 L65.5,143.792969 L62,146 L58.5,143.792969 L58.328,100.206 L32.9272106,124.325039 C29.6501879,126.627763 26.908417,128.449544 24.7018979,129.790381 L24.3391008,130.009401 C22.0727738,131.368322 19.7513262,132.582024 17.3747581,133.650507 L57.867,93.412 L57.864,93.402 L17,134 C17.9406536,131.933172 18.9931721,129.908289 20.1575556,127.92535 L20.663426,127.078087 C22.0306773,124.825568 23.9370792,121.980306 26.3826317,118.5423 L54.821,88.954 L29.0600826,64.4953361 C25.8867433,65.8661374 23.8425796,67.1831702 22.9275916,68.4464345 C22.0126035,69.7096989 21.5083452,71.9111063 21.4148166,75.0506567 C20.3950399,75.4282045 19.6508917,75.5676932 19.182372,75.4691228 C18.7138524,75.3705523 17.9838118,74.809782 16.9922504,73.7868119 C18.4659364,69.8317816 19.6700572,66.6803537 20.6046129,64.3325282 L20.8528082,63.7121362 C21.0540682,63.2117462 21.2414043,62.7528646 21.4148166,62.3354914 C22.420608,59.9147269 23.321011,58.4196837 24.1160256,57.8503621 C24.8501994,57.4167163 24.151794,55.8370336 22.0208094,53.111314 C19.8898249,50.3855944 16.6567697,46.9365879 12.3216439,42.7642945 L10.263609,40.8410535 C8.93410739,40.2476697 7.8962726,39.8685362 7.15010465,39.703653 C6.4039367,39.5387697 5.72602848,39.5387697 5.11638001,39.703653 C4.96120666,38.1846532 4.96120666,37.070027 5.11638001,36.3597744 C5.27155336,35.6495218 5.94409904,34.7940728 7.13401706,33.7934276 C8.40532739,32.8291512 9.39828574,32.2698989 10.1128921,32.115671 C10.8274985,31.961443 11.9489571,31.961443 13.4772681,32.115671 C13.3113741,32.7216052 13.3113741,33.3953832 13.4772681,34.1370052 C13.643162,34.8786271 14.0246196,35.9101389 14.6216407,37.2315406 L16.5566708,39.2770369 C20.7545396,43.5857511 24.2246879,46.799109 26.9671157,48.9171106 C29.7095434,51.0351121 31.2989093,51.7292625 31.7352133,50.9995617 C32.3080248,50.2093906 33.8122322,49.3144733 36.2478357,48.3148097 C38.6834391,47.3151461 42.5239441,45.8499389 47.7693507,43.9191879 C48.7985914,44.9047082 49.3627991,45.630301 49.4619738,46.0959663 C49.5611485,46.5616315 49.4208048,47.301246 49.0409426,48.3148097 C45.8821473,48.4077685 43.6672457,48.9089547 42.3962377,49.8183681 C41.1252298,50.7277816 39.8001238,52.7594913 38.4209198,55.9134971 L56.7934775,75.0276448 C57.7756693,71.3391555 58.1983474,68.3666074 58.0615119,66.1100005 C57.8463244,62.5612603 56.8258205,56.845507 55,48.9627404 L55.0007784,48.9479729 C55.0187975,48.6181997 55.3704843,42.7663981 58.1896743,31.5046442 C58.6216431,29.779068 59.5756578,27.0598414 61.0517182,23.3469643 L61.415996,22.4367957 C61.6031466,21.9721724 61.7978145,21.4932405 62,21 C62.2021855,21.4932405 62.3968534,21.9721724 62.584004,22.4367957 L62.9482818,23.3469643 C64.4243422,27.0598414 65.3783569,29.779068 65.8103257,31.5046442 C68.7136706,43.1025699 69,48.9627404 69,48.9627404 C67.1741795,56.845507 66.1536756,62.5612603 65.9384881,66.1100005 C65.7938214,68.4957555 66.274544,71.681745 67.3806561,75.6679688 C67.3057029,75.8162469 67.2330593,75.9651855 67.1627252,76.1147843 L86.5790802,55.9134971 C85.1998762,52.7594913 83.8747702,50.7277816 82.6037623,49.8183681 C81.3327543,48.9089547 79.1178527,48.4077685 75.9590574,48.3148097 C75.5791952,47.301246 75.4388515,46.5616315 75.5380262,46.0959663 C75.6372009,45.630301 76.2014086,44.9047082 77.2306493,43.9191879 C82.4760559,45.8499389 86.3165609,47.3151461 88.7521643,48.3148097 C91.1877678,49.3144733 92.6919752,50.2093906 93.2647867,50.9995617 C93.7010907,51.7292625 95.2904566,51.0351121 98.0328843,48.9171106 C100.775312,46.799109 104.24546,43.5857511 108.443329,39.2770369 L110.378359,37.2315406 C110.97538,35.9101389 111.356838,34.8786271 111.522732,34.1370052 C111.688626,33.3953832 111.688626,32.7216052 111.522732,32.115671 C113.051043,31.961443 114.172502,31.961443 114.887108,32.115671 C115.601714,32.2698989 116.594673,32.8291512 117.865983,33.7934276 Z" id="Combined-Shape" fill="#C7D9FF"></path>
            </g>
            <g id="Group-3-Copy-10" transform="translate(14.000000, 0.000000)" fill="#C7D9FF">
                <polygon id="Polygon-Copy-43" points="83.8080495 12 98.8080495 33 83.8080495 54 68.8080495 33"></polygon>
                <polygon id="Polygon-Copy-47" points="49.4040248 0 64.4040248 21 49.4040248 42 34.4040248 21"></polygon>
                <polygon id="Polygon-Copy-48" points="15 12 30 33 15 54 0 33"></polygon>
            </g>
        </g>
    </g>
</svg>
